z_dist/img/icons/crypto/dogecoin-DOGE.svg

<svg width="64" height="64" viewBox="0 0 64 64" fill="none" xmlns="http://www.w3.org/2000/svg">
<g clip-path="url(#clip0_235_4239)">
<rect width="64" height="64" rx="4" fill="white"/>
<path d="M12.24 51.9742V42.5473H17.7519V21.0663H12.2657V12.0258H13.0642C20.4821 12.0258 27.8485 12.0515 35.2664 12C36.9148 12 38.3572 12.4379 39.7996 13.0045C42.7101 14.112 45.26 15.8377 47.2947 18.2589C49.0977 20.4224 50.334 22.9208 50.9779 25.651C52.0597 30.3902 52.0855 35.1809 50.7204 39.8686C48.9174 45.973 45.0539 50.1713 38.6405 51.5879C37.533 51.8455 36.3482 52 35.1891 52H13.1415C12.8581 51.9742 12.5748 51.9742 12.24 51.9742ZM28.9818 42.5216C30.2439 42.5216 31.4544 42.5988 32.665 42.4958C34.2361 42.3413 35.6527 41.8519 36.7088 40.4868C37.6102 39.3278 38.4087 38.1687 38.795 36.8036C39.645 33.8158 39.3102 30.7766 38.7178 27.763C38.3829 25.9601 37.533 24.3117 36.3997 22.9466C35.73 22.1739 34.8028 21.2981 33.8755 21.1436C32.3301 20.8603 30.656 21.0663 28.9818 21.0663V42.5216Z" fill="#C2A633"/>
</g>
<defs>
<clipPath id="clip0_235_4239">
<rect width="64" height="64" fill="white"/>
</clipPath>
</defs>
</svg>

<svg width="64" height="64" fill="none" xmlns="http://www.w3.org/2000/svg"><g clip-path="url(#clip0_235_4239)"><rect width="64" height="64" rx="4" fill="#fff"/><path d="M12.24 51.974v-9.427h5.512v-21.48h-5.486v-9.041h.798c7.418 0 14.785.026 22.202-.026 1.649 0 3.091.438 4.534 1.005 2.91 1.107 5.46 2.833 7.495 5.254a17.865 17.865 0 013.683 7.392c1.082 4.74 1.108 9.53-.258 14.218-1.803 6.104-5.666 10.302-12.08 11.719a15.426 15.426 0 01-3.45.412H13.141c-.284-.026-.567-.026-.902-.026zm16.742-9.452c1.262 0 2.472.077 3.683-.026 1.571-.155 2.988-.644 4.044-2.01.901-1.158 1.7-2.317 2.086-3.682.85-2.988.515-6.027-.077-9.041-.335-1.803-1.185-3.451-2.318-4.816-.67-.773-1.597-1.649-2.524-1.803-1.546-.284-3.22-.078-4.894-.078v21.456z" fill="#C2A633"/></g><defs><clipPath id="clip0_235_4239"><path fill="#fff" d="M0 0h64v64H0z"/></clipPath></defs></svg>
